X: 43
T:Gan Ainm
R:Jig
M:6/8
D:Session tape, Doolin 1987
Z:Bernie Stocks
K:Em %'real' Em
B2E EFG | Bde d3 | edB BAB |1 d2e dBA :|2 AGE E3 :|
Bee efe | dff f2e |1 dBB BAB | d2e dBA :|2 d2B BAF | AFE E3 :|
<end>
<start>
